archdroid-icon-theme/Archdroid-Indigo/actions/scalable/gtk-no.svg

<svg fill="#3F51B5" viewBox="0 0 48 48" xmlns="http://www.w3.org/2000/svg"><path d="m24 4c-11.05 0-20 8.95-20 20s8.95 20 20 20 20-8.95 20-20-8.95-20-20-20zm10 27.17-2.83 2.83-7.17-7.17-7.17 7.17-2.83-2.83 7.17-7.17-7.17-7.17 2.83-2.83 7.17 7.17 7.17-7.17 2.83 2.83-7.17 7.17z" fill="#3F51B5"/></svg>

<svg fill="#3F51B5" viewBox="0 0 48 48" xmlns="http://www.w3.org/2000/svg"><path d="M24 4C12.95 4 4 12.95 4 24 4 35.05 12.95 44 24 44 35.05 44 44 35.05 44 24 44 12.95 35.05 4 24 4ZM34 31.17L31.17 34 24 26.83 16.83 34 14 31.17 21.17 24 14 16.83 16.83 14 24 21.17 31.17 14 34 16.83 26.83 24 34 31.17Z"/></svg>
